images/wl-icons/document.svg

<svg xmlns="http://www.w3.org/2000/svg" xmlns:xlink="http://www.w3.org/1999/xlink" id="document-Capa_1" xml:space="preserve" height="39" viewBox="0 0 30.03 38.69" width="30" version="1.1" y="0px" x="0px" enable-background="new 0 0 30.03 38.69"><path d="m18.951 0.501h-18.451v37.688h29.031v-26.705l-10.58-10.983zm0.496 4.917l4.98 5.173h-4.98v-5.173zm-15.893 29.718v-31.578h13.601v9.324h9.321v22.255l-22.922-0.001z"/></svg>

<?xml version="1.0" encoding="utf-8"?>
<!DOCTYPE svg PUBLIC "-//W3C//DTD SVG 1.1//EN" "http://www.w3.org/Graphics/SVG/1.1/DTD/svg11.dtd"><svg xmlns="http://www.w3.org/2000/svg" xmlns:xlink="http://www.w3.org/1999/xlink" viewBox="0 0 30.03 38.69" height="38.69px" xml:space="preserve" x="0px" y="0px" id="Capa_1" width="30.03px" version="1.1" enable-background="new 0 0 30.03 38.69">
  <path d="M18.951,0.501H0.5v37.688h29.031V11.484L18.951,0.501z M19.447,5.418l4.98,5.173h-4.98V5.418z M3.554,35.136V3.558h13.601  v9.324h9.321v22.255L3.554,35.136L3.554,35.136z" />
</svg>
